X: 3274
T: Klapdans
B:[[Notböcker/Melodier til gamle danske Almuedanse for Violin solo]]
O:Danmark
Z:Søren Bak Vestergaard
M: 3/8
L: 1/8
K: G
ddd|g2 d|cBA|(B/A/B/c/).B|ddd|g2 d|\
cBA|G2 z:| |:(!downbow!c/B/c/d/).c|(B/A/B/c/).B|(A/G/A/B/).A|\
G(.B.d)|(c/B/c/d/).c|(B/A/B/c/).B|(A/G/A/B/).A|G2 z:|
(:musicend:)
(:music:)
